X:1029
T:Polska i G-dur efter Lörk Olle
R:Polska
Z:Göran Hed 2009-01-15
O:Hedesunda, Gästrikland
S:efter Lörk-Olle
M: 3/4
L: 1/16
K:G
G4B4d4| gfgb g4d4| c'2>b2 a2g2 fgfe| abag fgfe dcBA|
G4B4d4| gfgbg4d4| c'2>b2 a2g2 fgfe| defag8:|
|:d2ef gage cGce| e2>d2 dedB GDGB| B2d2 cdcA FDFA| A2>G2 GABc d4|
d2ef gage cGce| e2>d2 dedB GDGB| B2d2 cdcA FDFA| A2GF G8:|
(:musicend:)

(:music:)
